!!!!SEGMENT: pl-wn--mus-246_zelenski-wladyslaw--czy-pamietasz.krn
!!!cenid: 18xx:3654
!!!COM: Żeleński, Władysław
!!!COM-rismID: pe41024455
!!!CDT: 1837/07/06-1921/01/23
!!!CNT: Polish
!!!OTL: Czy pamiętasz?
!!!PDT:
!!!AGN:
!!!YEC: Copyright 2022 Narodowy Instytut Fryderyka Chopina (https://polishscores.org)
!!!YEM: License CC-BY-4.0 (https://creativecommons.org/licenses/by/4.0)
!!!SMS-siglum: PL-Wn
!!!SMS-shelfmark: Mus.246
!!!SMS-shelfwork: W
!!!SMS-variant:
!!!SMS-altvar:
!!!NIFC-rismSourceID:
!!!NIFC-rismChildID:
!!!NIFC-islandoraID: none
!!!URL-pdf-islandora:
!!!URL-scan: https://polona2.pl/item/czy-pamietasz,NjYxODg3OTk/0 @EN{Scan on Polona} @PL{Skany w portalu Polona}
!!!IIIF: https://polona2.pl/iiif/item/NjYxODg3OTk/manifest.json
!!!ONB-nifc:
!!!AIN: 1 empty 1 forte
!!!key:
**kern	**kern	**dynam	**kern	**text	**dynam
*part2	*part2	*	*part1	*	*
*staff3	*staff2	*	*staff1	*	*
*Iforte	*Iempty	*	*Iempty	*	*
*I"Fortepian	*	*	*I"Śpiew	*	*
*I'pf	*	*	*I'V	*	*
*ICklav	*	*	*ICvox	*	*
*clefF4	*clefF4	*	*clefG2	*	*
*k[b-e-a-d-g-c-]	*k[b-e-a-d-g-c-]	*	*k[b-e-a-d-g-c-]	*	*
*F#:	*F#:	*	*F#:	*	*
*M3/4	*M3/4	*	*M3/4	*	*
=1	=1	=1	=1	=1	=1
*xywh-#2:35,733,2973,565	*xywh-#2:35,733,2973,565	*	*xywh-#2:43,82,3013,727	*	*
*ped	*	*	*	*	*
*	*2\right	*	*	*	*
!	!	!	!LO:TX:t=P:problem=niektóre caudy z prawej strony, niektóre z lewej	!	!
!LO:TX:b:i:t=con Ped	!	!	!LO:TX:a:i:t=Sostenuto	!	!
4GG-/ 4GGG-/	4d-\ 4B-\ 4G-\ 4D-\	pp	2.r	.	.
[2GG-/ [2GGG-/	[2d-\ [<2B-\ [<2G-\ [<2D-\	.	.	.	.
=2	=2	=2	=2	=2	=2
4GG-/] 4GGG-/]	4d-\] 4B-\] 4G-\] 4D-\]	.	4r	.	.
[2GG-/ [2GGG-/	[2d-\ [<2B-\ [<2G-\ [<2D-\	.	4r	.	.
!	!	!	!	!	!LO:DY:a
.	.	.	8g-/	Czy	p
.	.	.	8a-/	pa-	.
=3	=3	=3	=3	=3	=3
2GG-/] 2GGG-/]	2d-\] 2B-\] 2G-\] 2D-\]	.	4.b-\	-mię-	.
.	.	.	8g-/	-tasz	.
[4GG-/ [4GGG-/	(<(4c-\ [<4G-\ 4E-\	.	8e-/	nad	.
.	.	.	8f/	Alp	.
=4	=4	=4	=4	=4	=4
4GG-/] 4GGG-/]	4B-\ 4G-\] 4D-\))	.	4d-/	śnie-	.
[2GG-/ [2GGG-/	[2B-\ [<2G-\ [<2D-\	.	4g-/	-giem	.
.	.	.	8g-/	Roz-	.
.	.	.	8a-/	-wie-	.
=5	=5	=5	=5	=5	=5
*	*^	*	*	*	*
*	*	*xywh-#2:35,733,2973,565	*	*	*	*
!	!	!	!	!	!	!LO:DY:a
4GG-/] 4GGG-/]	4B-\] 4G-\]	4D-\]	<	8b-\	-szo-	<
.	.	.	.	8cc-\	-ne	.
(4FF-X/ 4FFF-X/	[[2d-/	(4A-\ (4D-\	.	(4dd-\	Włoch	.
!	!	!	!	!LO:TX:a:i:t=espr.	!	!
[4EE-/ [4EEE-/)	.	4Gn\ 4E-\))	.	8.cc-\)	.	[
.	.	.	.	16b-\	błę-	.
=6	=6	=6	=6	=6	=6	=6
!	!	!	!	!	!	!LO:DY:a
4EE-/] 4EEE-/]	4d-/]] 4B-/	4F-X\	[	4b-\	-Ki-	>
!	!	!	!	!	!	!LO:DY:a
[2AA-/ [2AAA-/	[<2c-\ [<2A-\	[<2E-\	.	4a-/	-ty?	] p
.	.	.	.	8a-/	Nad	.
.	.	.	.	8b-\	je-	.
*	*v	*v	*	*	*	*
!!LO:LB:g=original
=7	=7	=7	=7	=7	=7
*xywh-#2:143,1586,2918,548	*xywh-#2:143,1586,2918,548	*	*xywh-#2:222,1341,2797,386	*	*
4AA-/] 4AAA-/]	4c-\] 4A-\] 4E-\]	.	4.cc-\	-zio-	.
(4AA-/	(4c-X\ 4F-X\	.	.	.	.
.	.	.	8a-/	-ra	.
4DD-/	4d-\ 4A-\ 4F-\	.	8f-X/	włos-	.
.	.	.	8a-/	-kim	.
=8	=8	=8	=8	=8	=8
2EE-/)	2B-\ 2G-\)	.	4g-/	brze-	.
.	.	.	4g-/	-giem	.
(4CC-/	(4c-\ 4G-\ (4E-\	<	8g-/	Czy	.
!	!	!	!	!	!LO:DY:a
.	.	.	8a-/	pa-	<
=9	=9	=9	=9	=9	=9
*	*^	*	*	*	*
*	*	*xywh-#2:143,1586,2918,548	*	*	*	*
2BBB-/	4d-\ 4G-\))	4D-\	.	4.b-\	-mię-	.
.	(2B-/ 2G-/	(4Dn\	.	.	.	.
.	.	.	.	8g-/	-tasz	.
4CC-/	.	4E-\	.	8.e-/	Alp	.
.	.	.	.	16b-\	gra-	[[
=10	=10	=10	=10	=10	=10	=10
*	*	*Xtuplet	*	*	*	*
!	!	!	!	!	!	!LO:DY:a
4DD-/)	8A-/)	(12F\L)	[ p	4a-/	-ni-	>
.	.	12F\	.	.	.	.
.	8ryy	.	.	.	.	.
.	.	12A-\J	.	.	.	.
*	*	*	*^	*	*	*
(4D-\	4d-/	12d-\L	<	.	4d-/	-ty ?	.
!	!	!	!	!LO:HP:b=2	!	!	!
.	.	12F\	.	<	.	.	.
.	.	12A-\J	.	.	.	.	.
4Cn\	(4e--^/	12G-\L	.	.	4r	.	]
.	.	12B--\	.	.	.	.	.
.	.	12G-\J)	[[	[	.	.	.
*	*	*	*v	*v	*	*	*
=11	=11	=11	=11	=11	=11	=11
!	!LO:TX:b:i:t=poco	!LO:TX:t=P:problem=dwa takty na doklejonym kawałku kartki.	!	!	!	!
4D-\)	4d-/)	12F\L	.	2.r	.	.
.	.	12F\	.	.	.	.
.	.	12A-\J	<	.	.	.
*	*clefG2	*	*	*	*	*
4r	12d-/L	4ryy	.	.	.	.
.	12f/	.	.	.	.	.
.	12a-/J	.	.	.	.	.
([4d-\	[4dd-/	12dd-\L	.	.	.	.
.	.	12f\	.	.	.	.
.	.	12a-\J	.	.	.	.
=12	=12	=12	=12	=12	=12	=12
4d-\]	6.dd-/]	12f\L	.	2.r	.	.
.	.	12a-\	.	.	.	.
.	.	12f\J	.	.	.	.
4cn\	(2ddn^/	12g-\L	.	.	.	.
.	.	12b--\	.	.	.	.
.	.	12dn\J	.	.	.	.
4c-X\	.	12a-\L	.	.	.	.
.	.	12d\	.	.	.	.
.	.	12g-\J	.	.	.	.
*	*v	*v	*	*	*	*
!!LO:LB:g=original
=13||	=13||	=13||	=13||	=13||	=13||
*k[cngndnb-e-a-]	*k[cngndnb-e-a-]	*	*k[cngndnb-e-a-]	*	*
*	*^	*	*	*	*
*xywh-#2:176,2374,2858,592	*xywh-#2:176,2374,2858,592	*xywh-#2:176,2374,2858,592	*	*xywh-#2:230,2167,2773,355	*	*
!	!	!	!	!LO:TX:a:i:t=poco piu mosso	!	!
8B-\)	8ee-/ 8g/ 8e-/)	4ryy	.	2.r	.	.
8r	8r	.	.	.	.	.
*clefG2	*	*	*	*	*	*
*Xtuplet	*	*	*	*	*	*
*ped	*	*	*	*	*	*
!	!LO:TX:b:i:t=armanioso	!	!	!	!	!
12g/L	(4eee-/	12bb-\L	pp	.	.	.
12B-/	.	12ee-\	.	.	.	.
12g/J	.	12bb-\J	.	.	.	.
12B-/L	4ddd/	12gg\L	.	.	.	.
12g/	.	12dd\	.	.	.	.
12B-/J	.	12gg\J	.	.	.	.
=14	=14	=14	=14	=14	=14	=14
12a-/L	4ccc/	12ee-\L	.	2.r	.	.
12B-/	.	12cc\	.	.	.	.
12g/J	.	12ee-\J	.	.	.	.
12f/L	4bb-/	12dd\L	.	.	.	.
12B-/	.	12b-\	.	.	.	.
12f/J	.	12ff\J	.	.	.	.
12B-/L	4aa-/	12dd\L	.	.	.	.
12f/	.	12a-\	.	.	.	.
12B-/J	.	12dd\J	.	.	.	.
=15	=15	=15	=15	=15	=15	=15
12e-/L	2gg/)	12b-\L	.	4r	.	.
12B-/	.	12g\	.	.	.	.
12e-/J	.	12b-\J	.	.	.	.
!	!	!	!	!LO:TX:a:i:t=dolce	!	!
12A-/L	.	12dd\L	.	4.g/	Tam	.
12B-/	.	12b-\	.	.	.	.
12A-/J	.	12dd\J	.	.	.	.
12B-/L	(6gg/	12g\L	.	.	.	.
12A-/	.	12b-\	.	.	.	.
.	.	.	.	8f/	z da-	.
12B-/J	12ff/	12f\J	.	.	.	.
*clefF4	*	*	*	*	*	*
=16	=16	=16	=16	=16	=16	=16
!	!	!	!	!	!	!LO:DY:a
12G\L	2ee-/)	12b-\L	<	4.e-/	-le-	<
12B-\	.	12g\	.	.	.	.
12G\J	.	12b-\J	.	.	.	.
12E-\L	.	12g\L	.	.	.	.
12B-\	.	12e-\	.	.	.	.
.	.	.	.	8f/	-Ka	.
12E-\J	.	12b-\J	.	.	.	.
12B-\L	(6.dd/	12g\L	.	8.g/	w Nie-	.
12E-\	.	12d\	.	.	.	.
12B-\J	.	12g\J	.	.	.	.
.	.	.	.	16b-\	-bo	[[
=17	=17	=17	=17	=17	=17	=17
12E-\L	[2.cc/)	12c\L	[	4cc\	przo-	.
12B-\	.	12g\	<	.	.	.
12E-\J	.	12c\J	.	.	.	.
!	!	!	!	!	!	!LO:DY:a
12A-\L	.	12f\L	.	4f/	-dem	<
12E-\	.	12c\	.	.	.	.
12A-\J	.	12f\J	.	.	.	.
!	!LO:TX:b:i:t=un poco e string	!	!	!LO:TX:a:i:t=un poco e string.	!	!
12E-\L	.	12c\L	.	8.a-/	Pną	.
12A-\	.	12f\	.	.	.	.
12E-\J	.	12c\J	.	.	.	.
.	.	.	.	16g/	się	.
=18	=18	=18	=18	=18	=18	=18
12A-\L	2cc/]	12f\L	.	8f/	ost-	.
12E-\	.	12c\	.	.	.	.
.	.	.	.	8g/	-rza	.
12A-\J	.	12f\J	.	.	.	.
!	!	!	!	!LO:TX:t=P:problem=mixed beam	!	!
12E-\L	.	12c\L	.	(>8a-/L	Kry-	.
12A-\	.	12f\	.	.	.	.
.	.	.	.	[8cc\J)	.	.
12E-\J	.	12c\J	.	.	.	.
12A-\L	(4cc/	12f\L	.	8.cc\]	.	.
12E-\	.	12c\	.	.	.	.
12A-\J	.	12f\J	.	.	.	.
.	.	.	.	16dd\	-te	.
!!LO:LB:g=original
=19	=19	=19	=19	=19	=19	=19
*xywh-#2:179,3331,2835,547	*xywh-#2:179,3331,2835,547	*xywh-#2:179,3331,2835,547	*	*xywh-#2:238,3037,2734,366	*	*
12E-\L	2b-/	12g\L	.	4dd\	lo-	.
12B-\	.	12d\	.	.	.	.
12E-\J	.	12g\J	.	.	.	.
12B-\L	.	12d\L	.	4g/	-dem	.
12E-\	.	12g\	.	.	.	.
12B-\J	.	12d\J	.	.	.	.
12E-\L	4a-/	12f\L	.	4r	.	.
12B-\	.	12d\	.	.	.	.
12E-\J	.	12f\J	.	.	.	.
=20	=20	=20	=20	=20	=20	=20
!	!	!	!	!LO:TX:a:i:t=a tempo	!	!
8En\	4g/)	12d-X\L	.	4r	.	.
.	.	12B-\	p	.	.	.
8r	.	.	.	.	.	.
.	.	[12d-\J	.	.	.	.
!	!	!	!	!LO:TX:a:i:t=espr.	!	!
8r	4f/	12d-\L]	.	[<4b-\	A	.
.	.	12B-\	.	.	.	.
(8GG/L	.	.	.	.	.	.
*	*	*	*^	*	*	*
.	.	[12d-\J	<	.	.	.	.
*	*	*	*	*	*Xtuplet	*	*
!	!	!	!	!LO:HP:b=2	!	!	!
8AA-/	[4en/	12d-\L]	.	<	12b-\L]	.	.
.	.	12B-\	.	.	12a-\J	.	.
8BB-/J	.	.	.	.	.	.	.
.	.	[12d-\J	[	.	12g/	tu	.
=21	=21	=21	=21	=21	=21	=21	=21
2AA-/)	4e/]	12d-\L]	.	[	4b-\	bli-	.
*	*	*	*v	*v	*	*	*
.	.	12A-\	.	.	.	.
.	.	12d-X\J	.	.	.	.
.	[2f/	12c\L	.	8a-/	-żej	.
.	.	12F\	.	.	.	.
.	.	.	.	8g/L	a	.
.	.	12c\J	.	.	.	.
(4AA-/	.	12F\L	.	8f/J	.	.
.	.	12c\	.	.	.	.
.	.	.	.	8c/	tu	.
.	.	12F\J	.	.	.	.
=22	=22	=22	=22	=22	=22	=22
2GG/)	2f/]	12Bn\L	.	4e-/	ni-	.
.	.	12Gn\	.	.	.	.
.	.	12B\J	.	.	.	.
.	.	12G\L	.	4d/	-żej	.
.	.	12B\	.	.	.	.
.	.	12G\J	.	.	.	.
(4GG/	[4f/	12B\L	.	8d/	Po-	.
.	.	12G\	.	.	.	.
.	.	.	.	8e-/	-za	.
.	.	12B\J	.	.	.	.
=23	=23	=23	=23	=23	=23	=23
!	!	!	!	!	!	!LO:DY:a
2AA-/)	(2f/]	12c\L	<	8f/	wzgó-	<
.	.	12F\	.	.	.	.
.	.	.	.	8g/	-rzem	.
.	.	12c\J	.	.	.	.
.	.	12F\L	.	(8b-\	spły-	.
.	.	12c\	.	.	.	.
.	.	.	.	4a-\)	.	.
.	.	12F\J	.	.	.	.
(4FF/	6a-/)	12c\L	[	.	.	.
.	.	12A-\	.	.	.	.
.	.	.	.	8e-/	-wa	[
.	(12e-/	12c\J	.	.	.	.
=24	=24	=24	=24	=24	=24	=24
!	!	!	!	!	!	!LO:DY:a
[2.BB-/)	4g/	12e-\L	<	4g/	wzgó-	>
.	.	12An\	.	.	.	.
.	.	12B-\J	.	.	.	.
.	4f/	12d\L	.	4f/	-rze,	.
.	.	12A\	.	.	.	.
.	.	12B-\J	.	.	.	.
.	4g/	12e-\L	.	4r	.	]
.	.	12A\	.	.	.	.
.	.	12B-\J	.	.	.	.
!!LO:PB:g=original
=25	=25	=25	=25	=25	=25	=25
*xywh-#3:92,1539,5594,959	*xywh-#3:92,1539,5594,959	*xywh-#3:92,1539,5594,959	*	*xywh-#3:169,935,5486,790	*	*
2BB-/]	4a-/	12f\L	.	4r	.	.
.	.	12An\	.	.	.	.
.	.	12B-\J	.	.	.	.
.	4g/	12e-\L	>	4r	.	.
.	.	12A\	.	.	.	.
.	.	12B-\J	.	.	.	.
!	!	!	!	!LO:TX:a:i:t=dolce	!	!
4BB-/	4f/)	12d\L	.	(>4a-/	Zwin-	.
.	.	12A-X\	.	.	.	.
.	.	12B-\J	]	.	.	.
=26	=26	=26	=26	=26	=26	=26
12EE-/L	2e-/	12d\L	pp	8g/)	.	.
12BB-/	.	12G\	.	.	.	.
.	.	.	.	8f/	-nie	.
12EE-/J	.	12d\J	.	.	.	.
12BB-/L	.	12G\L	.	8e-/	Ka-	.
12EE-/	.	12d\	.	.	.	.
.	.	.	.	8f/	-pią	.
12BB-/J	.	12G\J	.	.	.	.
12EE-/L	(4e-/	12d\L	.	8g/	bluszcz	.
12BB-/	.	12G\	.	.	.	.
.	.	.	.	8b-\	i	.
12EE-/J	.	[12d\J	.	.	.	.
=27	=27	=27	=27	=27	=27	=27
12AA-\L	4g/)	12d\L]	.	4dd-X\	ró-	.
12F-X\	.	12B-\	.	.	.	.
12AA-\J	.	12d\J	.	.	.	.
12E-\L	(4a-/	12c\L	.	8cc\	-że	.
12AA-\	.	12e-\	.	.	.	.
.	.	.	.	8b-\L	jed-	.
12E-\J	.	12c\J	.	.	.	.
12AA-\L	4cc/	12e-\L	.	8a-\J	.	.
12E-\	.	12c\	.	.	.	.
.	.	.	.	8g/	-nym	.
12AA-\J	.	12e-\J	.	.	.	.
=28	=28	=28	=28	=28	=28	=28
!	!	!	!	!	!	!LO:DY:a
12DD/L	2f#X/)	12c\L	<	8f#X/	ra-	<
12D/	.	12d\	.	.	.	.
.	.	.	.	8g/	-jem	.
12DD/J	.	12c\J	.	.	.	.
12D/L	.	12d\L	.	(8an\L	gór	.
12DD/	.	12c\	.	.	.	.
.	.	.	.	[<8cc\J)	.	.
12D/J	.	12d\J	.	.	.	.
12DD/L	(4f#/	12c\L	.	8.cc\]	.	[
12D/	.	12d\	.	.	.	.
12DD/J	.	12c\J	.	.	.	.
.	.	.	.	16bn\	pod-	.
=29	=29	=29	=29	=29	=29	=29
*	*	*	*	*2\right	*	*
(12GG/L	2g/)	12Bn\L	[	[2dd\	-nó-	.
12D/	.	12d\	.	.	.	.
12GG/J	.	12G\J	.	.	.	.
12D/L	.	12B\L	.	.	.	.
12GG/	.	12d\	.	.	.	.
12D/J	.	12B\J	.	.	.	.
!	!	!	!	!	!	!LO:DY:a
12GG/L	[4g/	12f\L	.	8dd\L]	.	>
12D/	.	12B\	.	.	.	.
.	.	.	.	8bn\J	.	]]
12GG/J	.	12f\J	.	.	.	.
!!LO:LB:g=original
=30	=30	=30	=30	=30	=30	=30
*xywh-#3:222,3181,5537,1118	*xywh-#3:222,3181,5537,1118	*xywh-#3:222,3181,5537,1118	*	*xywh-#3:250,2591,5411,879	*	*
!LO:TX:t=P:problem=mixed beam	!	!	!	!	!	!
12G\L	4g/]	(12d\L	.	4g/	-że	.
12GG/	.	12c\	.	.	.	.
12G\J	.	12e-\J	.	.	.	.
!LO:TX:t=P:problem=mixed beam	!LO:TX:a:i:t=poco string e	!	!	!	!	!
12GG/L	(4f#X/	12c\L	.	4r	.	.
12G\	.	12e-\	.	.	.	.
12GG/J	.	12c\J	.	.	.	.
!LO:TX:t=P:problem=mixed beam	!	!	!	!	!	!
12G\L	4bn/	12e-\L	.	4r	.	.
12GG/	.	12c\	.	.	.	.
!	!	!	!LO:HP:a	!	!	!
12G\J	.	12e-\J	<	.	.	.
=31	=31	=31	=31	=31	=31	=31
8GG/)	8g/)	12Bn\L)	.	2.r	.	.
!	!	!	!LO:DY:a	!	!	!
.	.	(12d\	<	.	.	.
8r	4.ryy	.	.	.	.	.
.	.	12g\J	.	.	.	.
4r	.	12bn\L	.	.	.	.
.	.	12dd\	.	.	.	.
.	.	12gg\J	.	.	.	.
(12e-\L	((4aa-\)	4cc\	.	.	.	.
12F#X\	.	.	.	.	.	.
12e-\J	.	.	.	.	.	.
*	*v	*v	*	*	*	*
=32	=32	=32	=32	=32	=32
*^	*	*	*	*	*
*	*xywh-#3:222,3181,5537,1118	*	*	*	*	*
12d\L 12G\	2ryy	8gg\ 8bn\))	[	2.r	.	.
12d\	.	.	.	.	.	.
.	.	8r	.	.	.	.
12g\J)	.	.	.	.	.	.
4r	.	(12b\L	.	.	.	.
.	.	12dd\	.	.	.	.
.	.	12gg\J	.	.	.	.
(12e-\L	6ryy	[4aa-\ [4cc\	.	.	.	.
[[12F\	.	.	.	.	.	.
[12e-\J	12e-/	.	.	.	.	.
*v	*v	*	*	*	*	*
=33	=33	=33	=33	=33	=33
8a-\ 8e-\] 8F\]])	12aa-\]L 12cc\])	.	2.r	.	.
.	(12cc\	.	.	.	.
8r	.	.	.	.	.
.	12ee-\J	.	.	.	.
4r	12aa-\L	.	.	.	.
.	12ccc\	.	.	.	.
.	12bb-\J	.	.	.	.
4r	12aa-\L	.	.	.	.
.	12ee-\	.	.	.	.
.	12cc\J	.	.	.	.
=34	=34	=34	=34	=34	=34
!	!LO:TX:b:i:t=riten.	!	!	!	!
2.r	12b-/L	.	2.r	.	.
.	12a-/	>	.	.	.
.	12e-/J	.	.	.	.
.	8c/	.	.	.	.
.	4A-/	.	.	.	.
.	8e-/)	]]	.	.	.
=35||	=35||	=35||	=35||	=35||	=35||
!	!	!	!LO:TX:a:i:t=Tempo I	!	!
4r	4e-/	.	2.r	.	.
!	!	!LO:DY:a	!	!	!
[2FF^/	[2e-/ [2c-X/ [2A-^/	sfz	.	.	.
=36	=36	=36	=36	=36	=36
2FF/]	2e-/] 2c-/] 2A-/]	.	4r	.	.
.	.	.	(4.cc-X^\	W wie-	.
!	!	!LO:DY:rj	!	!	!
[4FF/	[4e-/ [4c-X/ [4A-/	p	.	.	.
.	.	.	8b-\)	.	.
!!LO:LB:g=original
=37	=37	=37	=37	=37	=37
*xywh-#3:245,4936,5622,1050	*xywh-#3:245,4936,5622,1050	*	*xywh-#3:216,4390,5547,756	*	*
4FF/]	4e-/] 4c-/] 4A-/]	.	4a-/	-czór	.
[2FF/	[2e-/ [2c-X/ [2A-/	.	8r	.	.
!	!	!	!	!	!LO:DY:a
.	.	.	8e-/L	Z ra-	<
.	.	.	8a-/J	.	.
.	.	.	8cc-X\	-na	[[
=38	=38	=38	=38	=38	=38
2FF/]	2e-/] 2c-/] 2A-/]	.	8b-\	Zwier-	.
.	.	.	8a-/	-cia-	.
.	.	.	8gn/	-dla-	.
.	.	.	8a-/	-na	.
(4FF-X/	(>4dn/ 4B-/ 4A-/	.	8b-\	fa-	.
.	.	.	8a-/	-la	.
=39	=39	=39	=39	=39	=39
!	!	!	!	!	!LO:DY:a
2EE-/)	2e-/ 2c-X/ 2A-/)	<	4.cc-X\	pi-	<
.	.	.	8b-\	-je	.
[4FF-X/	[4d-X/ [4A-/	[[	8.a-\	nie-	.
.	.	.	16dd-X\	-bios	[[
=40	=40	=40	=40	=40	=40
*	*^	*	*	*	*
*	*	*xywh-#3:245,4936,5622,1050	*	*	*	*
4FF-/]	4d-/]	4A-/]	.	[2dd-X\	smug !	.
!	!	!	!LO:DY:rj	!	!	!
[2D-X/ [2DD-X/	[2f-X/ [2d-X/	(4A-\	sfz	.	.	.
!	!	!LO:N:vis=8	!	!	!	!
.	.	8.F-X\L)	<	8dd-\]	.	.
.	.	.	.	8r	.	.
.	.	16B--\Jk	.	.	.	.
*	*v	*v	*	*	*	*
=41	=41	=41	=41	=41	=41
4D-/] 4DD-/]	4f-/] 4d-/] 4B-/	[	4r	.	.
!	!	!	!	!	!LO:DY:a
[2BB--/ [2BBB--/	[2f-X/ [2d-X/ [2B--/	mf	4.dd-X\	Na	mf
.	.	.	8b--\	wód	.
=42	=42	=42	=42	=42	=42
2BB--/] 2BBB--/]	2f-/] 2d-/] 2B--/]	.	4g-X/	do-	.
.	.	.	8f-X/	-le	.
.	.	.	8f-/L	na	.
4BB--/ 4BBB--/	4f-X/ 4e--/ 4A-/	.	8a-/J	.	.
.	.	.	8cc-X\	sKał	.
=43	=43	=43	=43	=43	=43
*	*^	*	*	*	*
*	*	*xywh-#3:245,4936,5622,1050	*	*	*	*
[2.BB--/ [2.BBB--/	2f-X/	2d-X\ 2B--\	.	4.dd-X\	czo-	.
.	.	.	.	8cc-X\	-le	.
.	(4fn/	[4d-\ [4B--\	.	8b--\	jed-	.
.	.	.	.	8a-/	-na	.
!!LO:LB:g=original
=44	=44	=44	=44	=44	=44	=44
*xywh-#3:188,6521,5588,1431	*xywh-#3:188,6521,5588,1431	*xywh-#3:188,6521,5588,1431	*	*xywh-#3:326,6142,5404,647	*	*
(8BB--/]L 8BBB--/]	2g-X/)	2d-\] 2B--\]	.	8g-X/	pię-	.
!	!	!	!	!	!	!LO:DY:a
8AA-/J 8AAA-/	.	.	.	8a-/	-Kność	<
4GG-X/ 4GGG-X/)	.	.	.	8b--\L	je-	.
.	.	.	.	[<8dd\J	.	.
(4GG-/ (4GGG-/	4f-X/ 4d-X/	4B--\	.	8.dd\]	.	.
.	.	.	.	16ff-X\	-den	[[
*	*v	*v	*	*	*	*
=45	=45	=45	=45	=45	=45
!	!	!	!	!	!LO:DY:a
12FF-X/L 12FFF-X/))	[4a-/ [<4f-X/ [4c-X/ [4A-/	f	[2ff-X\	Bóg !	f
([[12FF-/	.	.	.	.	.
[12C-X/J	.	.	.	.	.
[2F-X/ 2C-/_ [2FF-/]])	(>12a-/]L 12f-/] 12c-/] 12A-/]	.	.	.	.
.	12A-/	.	.	.	.
.	12c-/J	.	.	.	.
.	12f-/L	.	8ff-\]	.	.
.	12c-/	.	.	.	.
.	.	.	8r	.	.
.	12f-/J	.	.	.	.
=46||	=46||	=46||	=46||	=46||	=46||
*k[b-e-a-d-g-c-]	*k[b-e-a-d-g-c-]	*	*k[b-e-a-d-g-c-]	*	*
!	!	!	!LO:TX:a:i:t=xx	!	!
8F-\] 8C-\] 8FF-\]	12a-/L)	pp	2.r	.	.
.	(<12F-X</	.	.	.	.
8r	.	.	.	.	.
.	12A-</J	.	.	.	.
*	*clefF4	*	*	*	*
4r	12c-\L	.	.	.	.
.	12A-\	.	.	.	.
.	12c-\J	.	.	.	.
(4EE--/	12cn\L	.	.	.	.
.	12G-\	.	.	.	.
.	12c\J	.	.	.	.
=47	=47	=47	=47	=47	=47
*	*^	*	*	*	*
*	*	*xywh-#3:188,6521,5588,1431	*	*	*	*
2DD-/	2d-/)	(12d-\L	<	2.r	.	.
.	.	12F\	.	.	.	.
.	.	12A-\J	.	.	.	.
.	.	12F\L	.	.	.	.
.	.	12A-\	.	.	.	.
.	.	12F\J	.	.	.	.
4CC-X/	(4e--^/	12F\L	.	.	.	.
.	.	12B--\	.	.	.	.
.	.	12G-\J	.	.	.	.
=48	=48	=48	=48	=48	=48	=48
4DD-/)	4d-/)	12F\L)	.	2.r	.	.
.	.	12A-\	.	.	.	.
.	.	12d-\J	.	.	.	.
*	*clefG2	*	*	*	*	*
4r	12f/L	4ryy	[	.	.	.
.	12a-/	.	.	.	.	.
.	12dd-/J	.	.	.	.	.
(4cn^\	(4ee--^/	12g-\L	.	.	.	.
.	.	12b--\	.	.	.	.
.	.	12g-\J	.	.	.	.
=49	=49	=49	=49	=49	=49	=49
!	!	!	!LO:HP:b=2	!	!	!
8d-\)	8dd-/)	12dd-\L 12f\	>	2.r	.	.
.	.	(>12a-\	.	.	.	.
8r	8ryy	.	.	.	.	.
.	.	12f\J	.	.	.	.
4r	12d-/L	2ryy	.	.	.	.
.	12A-/	.	.	.	.	.
.	12f/J	.	.	.	.	.
4r	12d-/L	.	.	.	.	.
.	12A-</	.	.	.	.	.
.	12F</J	.	]	.	.	.
=50	=50	=50	=50	=50	=50	=50
*	*	*^	*	*	*	*
*	*	*	*xywh-#3:188,6521,5588,1431	*	*	*	*
4r	12D-</L	4.ryy	2ryy	.	2.r	.	.
.	12F</	.	.	.	.	.	.
.	12A-</J	.	.	.	.	.	.
4r	8d-/L)	.	.	.	.	.	.
*	*clefF4	*	*	*	*	*	*
!	!LO:TX:b:i:t=espr.	!	!	!	!	!	!
.	8D-/	[4.D-\	.	<	.	.	.
(4DD-/	(8.An/	.	4An\	.	.	.	.
.	16c-/Jk	.	.	.	.	.	.
*	*	*v	*v	*	*	*	*
!!LO:PB:g=original
=51	=51	=51	=51	=51	=51	=51
*xywh-#4:184,718,2877,580	*xywh-#4:184,718,2877,580	*xywh-#4:184,718,2877,580	*	*xywh-#4:281,460,2763,397	*	*
4GG-/)	4d-/ 4A-/)	4D-\]	[	2.r	.	.
[2GG-/ [2GGG-/	[2d-\ [<2B-\	[2G-\ [2D-\	>	.	.	.
*	*v	*v	*	*	*	*
=52	=52	=52	=52	=52	=52
4GG-/] 4GGG-/]	4d-\] 4B-\] 4G-\] 4D-\]	.	4r	.	.
[2GG-/ [2GGG-/	[2d-\ [<2B-\ [2G-\ [2D-\	] pp	4r	.	.
!	!	!	!LO:TX:a:i:t=dolce	!	!
.	.	.	8g-/	Wi-	.
.	.	.	8a-/	-dzę	.
=53	=53	=53	=53	=53	=53
2GG-/] 2GGG-/]	2d-\] 2B-\] 2G-\] 2D-\]	.	4.b-\	jesz-	.
.	.	.	8g-/	-cze,	.
[4GG-/ [4GGG-/	(4c-\ 4G-\ (4E-\	.	8e-/	wi-	.
.	.	.	8f/	-dzę	.
=54	=54	=54	=54	=54	=54
4GG-/] 4GGG-/]	4B-\ 4G-\ 4D-\))	.	4d-/	cie-	.
[2GG-/ [2GGG-/	[2B-\ [<2G-\ [2D-\	.	4g-/	-bie!	.
.	.	.	8g-/	Z har-	.
.	.	.	8a-/	-fą	.
=55	=55	=55	=55	=55	=55
*	*^	*	*	*	*
*	*	*xywh-#4:184,718,2877,580	*	*	*	*
!	!	!	!	!	!	!LO:DY:a
4GG-/] 4GGG-/]	4B-\]	4G-\] 4D-\]	.	8b-\	sto-	<
.	.	.	.	8cc-\	-isz	.
4FF-X/ 4FFF-X/	[2d-/	(4A-\ ((4D-\	.	(4dd-\	na	.
!	!	!	!	!LO:TX:a:i:t=espr.	!	!
[4EE-/ [4EEE-/	.	(4Gn\ 4E-\))	.	8.cc-\)	.	[
.	.	.	.	16b-\	mej	.
*	*v	*v	*	*	*	*
=56	=56	=56	=56	=56	=56
!	!	!	!	!	!LO:DY:a
4EE-/] 4EEE-/]	4d-\] 4c-\ 4F-X\))	.	4b-\	ło-	>
[2AA-/ [2AAA-/	[2c-\ [<2A-\ [2E-\	.	4a-\	-dzi,	]
!	!	!	!	!	!LO:DY:a
.	.	.	8a-\	Gwiazd	p
.	.	.	8b-\	już	.
=57	=57	=57	=57	=57	=57
4AA-/] 4AAA-/]	4c-\] 4A-\] 4E-\]	.	4.cc-\	Kil-	.
(4AA-/	(4c-\ 4F-X\	.	.	.	.
.	.	.	8a-/	-ka	.
4DD-/	4d-\ 4A-\ 4F-\	.	8f-X/	drży	.
.	.	.	8a-/	na	.
!!LO:LB:g=original
=58	=58	=58	=58	=58	=58
*xywh-#4:218,1548,2860,586	*xywh-#4:218,1548,2860,586	*	*xywh-#4:268,1324,2739,346	*	*
2EE-/)	2B-\ 2G-\)	.	4g-/	Nie-	.
.	.	.	4g-/	-bie,	.
(4CC-/	(<(>4c-\ [<4G-\ 4E-\	.	8g-/	Z nad	.
.	.	.	8a-/	Alp	.
=59	=59	=59	=59	=59	=59
*	*^	*	*	*	*
*	*	*xywh-#4:218,1548,2860,586	*	*	*	*
!	!	!	!	!	!	!LO:DY:a
2BBB-/	4d-/ 4G-/])	4D-\)	.	4.b-\	szczy-	<
.	(2B-/ 2G-/	(4Dn\	<	.	.	.
.	.	.	.	8g-/	-tu	.
4CC-/	.	4E-\	.	8.e-/	Księ-	.
.	.	.	.	16b-\	-życ	[[
=60	=60	=60	=60	=60	=60	=60
!	!	!	!	!	!	!LO:DY:a
4DD-/)	8A-/)	12F\L)	[ p	4a-/	wscho-	>
.	.	(12F\	.	.	.	.
.	8r	.	.	.	.	.
.	.	12A-\J	.	.	.	.
(4D-\	4d-/	12c-\L	.	4d-/	-dzi	.
.	.	12F\	.	.	.	.
.	.	12A-\J	.	.	.	.
4Cn\	4e--/	12G-\L	.	4r	.	]
.	.	12B--\	.	.	.	.
.	.	12G-\J	.	.	.	.
=61	=61	=61	=61	=61	=61	=61
!	!LO:TX:b:i:t=poco	!	!	!	!	!
4D-\)	4d-/)	12F\L	.	2.r	.	.
.	.	12F\	.	.	.	.
.	.	12A-\J	.	.	.	.
*	*clefG2	*	*	*	*	*
4r	12d-/L	4ryy	<	.	.	.
.	12f/	.	.	.	.	.
.	12a-/J	.	.	.	.	.
([4d-\	[4dd-/	12dd-\L	.	.	.	.
.	.	12f\	.	.	.	.
.	.	12a-\J	.	.	.	.
=62	=62	=62	=62	=62	=62	=62
4d-\]	4dd-/]	12f\L	.	2.r	.	.
.	.	12a-\	.	.	.	.
.	.	12f\J	.	.	.	.
4cn\	(2ddn^/	12g-\L	.	.	.	.
.	.	12b--\	.	.	.	.
.	.	12dn\J	.	.	.	.
4c-X\	.	12a-\L	.	.	.	.
.	.	12d\	.	.	.	.
.	.	12g-\J	.	.	.	.
*	*v	*v	*	*	*	*
=63||	=63||	=63||	=63||	=63||	=63||
*k[cngndnb-e-a-]	*k[cngndnb-e-a-]	*	*k[cngndnb-e-a-]	*	*
*	*^	*	*	*	*
*	*	*xywh-#4:218,1548,2860,586	*	*	*	*
!	!	!	!	!LO:TX:a:i:t=poco piu mosso	!	!
8B-\)	8ee-/ 8gn/ 8e-/)	4ryy	.	2.r	.	.
8r	8r	.	.	.	.	.
*clefG2	*	*	*	*	*	*
*ped	*	*	*	*	*	*
!LO:TX:b:i:t=con ped	!	!	!	!	!	!
12g/L	(4eee-/	12bb-\L	pp	.	.	.
!	!LO:TX:b:i:t=armonioso	!	!	!	!	!
12B-/	.	12ee-\	.	.	.	.
12g/J	.	12bb-\J	.	.	.	.
12B-/L	4ddd/	12gg\L	.	.	.	.
12g/	.	12dd\	.	.	.	.
12B-/J	.	12gg\J	.	.	.	.
=64	=64	=64	=64	=64	=64	=64
12a-/L	4ccc/	12ee-\L	.	2.r	.	.
12B-/	.	12cc\	.	.	.	.
12g/J	.	12ee-\J	.	.	.	.
12f/L	4bb-/	12dd\L	.	.	.	.
12B-/	.	12b-\	.	.	.	.
12f/J	.	12ff\J	.	.	.	.
12B-/L	4aa-/	12dd\L	.	.	.	.
12f/	.	12a-\	.	.	.	.
12B-/J	.	12dd\J	.	.	.	.
*clefF4	*	*	*	*	*	*
!!LO:LB:g=original
=65	=65	=65	=65	=65	=65	=65
*xywh-#4:192,2451,2875,549	*xywh-#4:192,2451,2875,549	*xywh-#4:192,2451,2875,549	*	*xywh-#4:316,2167,2685,401	*	*
12e-\L	2gg/)	12b-\L	.	4r	.	.
12B-\	.	12g\	.	.	.	.
12e-\J	.	12b-\J	.	.	.	.
!	!	!	!	!LO:TX:a:i:t=dolce	!	!
12A-\L	.	12dd\L	.	4.g/	Wi-	.
12B-\	.	12b-\	.	.	.	.
12A-\J	.	12dd\J	.	.	.	.
12B-\L	(6gg/	12g\L	.	.	.	.
12A-\	.	12b-\	.	.	.	.
.	.	.	.	8f/	-dzę	.
12B-\J	12ff/	12f\J	.	.	.	.
=66	=66	=66	=66	=66	=66	=66
!	!	!	!	!	!	!LO:DY:a
12G\L	2ee-/)	12b-\L	.	4.e-/	jesz-	<
12B-\	.	12g\	.	.	.	.
12G\J	.	12b-\J	<	.	.	.
12E-\L	.	12g\L	.	.	.	.
12B-\	.	12e-\	.	.	.	.
.	.	.	.	8f/	-cze,	.
12E-\J	.	12b-\J	.	.	.	.
12B-\L	(4dd/	12g\L	.	8.g/	wi-	.
12E-\	.	12d\	.	.	.	.
12B-\J	.	12g\J	.	.	.	.
.	.	.	[	16b-\	-dzę	[[
=67	=67	=67	=67	=67	=67	=67
12E-\L	[2.cc/)	12c\L	.	4cc\	cie-	.
12B-\	.	12g\	.	.	.	.
12E-\J	.	12c\J	.	.	.	.
12A-\L	.	12f\L	.	4f/	-bie:	.
12E-\	.	12c\	.	.	.	.
12A-\J	.	12f\J	.	.	.	.
!	!	!	!	!	!	!LO:DY:a
12E-\L	.	12c\L	.	8.a-/	Na	<
12A-\	.	12f\	.	.	.	.
12E-\J	.	12c\J	.	.	.	.
.	.	.	.	16g/	twych	[[
=68	=68	=68	=68	=68	=68	=68
!	!	!	!	!LO:TX:a:i:t=un poco e string.	!	!
12A-\L	2cc/]	12f\L	<	8f/	stru-	.
12E-\	.	12c\	.	.	.	.
.	.	.	.	8g/	-nach	.
12A-\J	.	12f\J	.	.	.	.
!	!LO:TX:b:i:t=un poco e string.	!	!	!	!	!
12E-\L	.	12c\L	.	8a-/L	two-	.
12A-\	.	12f\	.	.	.	.
.	.	.	.	[8cc/J	.	.
12E-\J	.	12c\J	.	.	.	.
12A-\L	(4cc/	12f\L	.	8.cc\]	.	.
12E-\	.	12c\	.	.	.	.
12A-\J	.	12f\J	.	.	.	.
.	.	.	.	16dd\	-je	.
=69	=69	=69	=69	=69	=69	=69
12B-\L 12E-\	2b-/	12g\L	.	4dd\	dło-	.
12B-\	.	12d\	.	.	.	.
12E-\J	.	12g\J	.	.	.	.
12B-\L	.	12d\L	.	4g/	-nie,	.
12E-\	.	12g\	.	.	.	.
12B-\J	.	12d\J	.	.	.	.
12E-\L	4a-/	12f\L	.	4r	.	.
12B-\	.	12d\	.	.	.	.
12E-\J	.	12f\J	.	.	.	.
=70	=70	=70	=70	=70	=70	=70
8En\	4g/)	12d-X\L	p	4r	.	.
.	.	12B-\	.	.	.	.
8r	.	.	.	.	.	.
.	.	[12d-\J	.	.	.	.
!	!	!	!	!LO:TX:a:i:t=espr.	!	!
!	!	!	!	!LO:TX:a:i:t=a tempo	!	!
8r	(4f/	12d-\L]	.	[4b-\	Wi-	.
*	*	*	*^	*	*	*
.	.	12B-\	<	.	.	.	.
!	!	!	!	!LO:HP:b=2	!	!	!
(8GG/L	.	.	.	<	.	.	.
.	.	[12d-\J	.	.	.	.	.
8AA-/	4en/	12d-\L]	.	.	12b-\L]	.	.
.	.	(>12B-\	.	.	12a-\J	.	.
8BB-/J	.	.	.	.	.	.	.
.	.	[12d-\J	[	[	12g/	-dzę	.
*	*	*	*v	*v	*	*	*
!!LO:LB:g=original
=71	=71	=71	=71	=71	=71	=71
*xywh-#4:195,3321,2826,577	*xywh-#4:195,3321,2826,577	*xywh-#4:195,3321,2826,577	*	*xywh-#4:265,3020,2719,401	*	*
2AA-/)	4e-/))	12d-\L]	[	4b-\	je-	.
.	.	12B-\	.	.	.	.
.	.	12d-\J	.	.	.	.
.	[2f/	12c\L	.	8a-\	-szcze,	.
.	.	12A-\	.	.	.	.
.	.	.	.	8g/L	wi-	.
.	.	12c\J	.	.	.	.
(4AA-/	.	12F\L	.	8f/J	.	.
.	.	12c\	.	.	.	.
.	.	.	.	8c/	-dzę	.
.	.	12F\J	.	.	.	.
=72	=72	=72	=72	=72	=72	=72
2GG/)	2f/]	12Bn\L	.	4e-/	cie-	.
.	.	12G\	.	.	.	.
.	.	12B\J	.	.	.	.
.	.	12G\L	.	4d/	-bie:	.
.	.	12B\	.	.	.	.
.	.	12G\J	.	.	.	.
(4GG/	[4f/	12B\L	.	8d/	Is-	.
.	.	12G\	.	.	.	.
.	.	.	.	8e-/	-Kra	.
.	.	12B\J	.	.	.	.
=73	=73	=73	=73	=73	=73	=73
!	!	!	!	!	!	!LO:DY:a
2AA-/)	(2f/]	12c\L	<	8f/	natch-	<
.	.	12F\	.	.	.	.
.	.	.	.	8g/	-nień	.
.	.	12c\J	.	.	.	.
.	.	12F\L	.	(8b-\	sKrzy-	.
.	.	12c\	.	.	.	.
.	.	.	.	4a-\)	.	.
.	.	12F\J	.	.	.	.
(4FF/	6a-/)	12c\L	.	.	.	.
.	.	12A-\	.	.	.	.
.	.	.	.	8e-/	-ci	[
.	(12e-/	12c\J	.	.	.	.
=74	=74	=74	=74	=74	=74	=74
!	!	!	!	!	!	!LO:DY:a
[2.BB-/)	4g/	12e-\L	[ <	4g/	li-	>
.	.	12An\	.	.	.	.
.	.	12B-\J	.	.	.	.
.	4f/	12d\L	.	4f/	-ca,	.
.	.	12A\	.	.	.	.
.	.	12B-\J	.	.	.	.
.	4g/	12e-\L	.	4r	.	]
.	.	12A\	.	.	.	.
.	.	12B-\J	.	.	.	.
=75	=75	=75	=75	=75	=75	=75
2BB-/]	4a-/)	12f\L	.	4r	.	.
.	.	12An\	.	.	.	.
.	.	12B-\J	.	.	.	.
.	(4g/	12e-\L	>	4r	.	.
.	.	12A\	.	.	.	.
.	.	12B-\J	.	.	.	.
(4BB-/	4f/	12d\L	.	(4a-/	Świa-	.
.	.	12A-X\	.	.	.	.
.	.	12B-\J	.	.	.	.
=76	=76	=76	=76	=76	=76	=76
*ped	*	*	*	*	*	*
12EE-/L	2e-/)	12d-X\L	] pp	8g/)	.	.
12BB-/	.	12G\	.	.	.	.
.	.	.	.	8f/	-tło	.
12EE-/J	.	12d-\J	.	.	.	.
12BB-/L	.	12G\L	.	8e-/	Krę-	.
12EE-/	.	12d-\	.	.	.	.
.	.	.	.	8f/	-giem	.
12BB-/J	.	12G\J	.	.	.	.
12EE-/L	4e-/	12d-\L	.	8g/	two-	.
12BB-/	.	12G\	.	.	.	.
.	.	.	.	8b-\	-je	.
12EE-/J)	.	[<12d-\J	.	.	.	.
!!LO:PB:g=original
=77	=77	=77	=77	=77	=77	=77
*xywh-#5:213,1457,5621,1091	*xywh-#5:213,1457,5621,1091	*xywh-#5:213,1457,5621,1091	*	*xywh-#5:319,1009,5388,651	*	*
(<12AA-\L	(4g/	(<12d-\L]	.	4dd-X\	li-	.
12F-X\	.	12B-\	.	.	.	.
12AA-\J	.	12d-X\J	.	.	.	.
12E-\L	4a-/	12c\L	.	8cc\	-ca	.
12AA-\	.	12e-\	.	.	.	.
.	.	.	.	8b-\L	Roz-	.
12E-\J	.	12c\J	.	.	.	.
12AA-\L	4cc/	12e-\L	.	8a-\J	.	.
12E-\	.	12c\	.	.	.	.
.	.	.	.	8g/	-a-	.
12AA-\J	.	12e-\J	.	.	.	.
=78	=78	=78	=78	=78	=78	=78
12DD/L	2f#X/)	12c\L	.	8f#X/	-nie-	.
12C/	.	12d\	.	.	.	.
!	!	!	!	!	!	!LO:DY:a
.	.	.	.	8g/	-lił	<
!	!	!	!LO:HP:b=2	!	!	!
12DD/J	.	12c\J	<	.	.	.
12D/L	.	12d\L	.	8an\L	blask	.
12DD/	.	12c\	.	.	.	.
.	.	.	.	[8cc\J	.	.
12D/J	.	12d\J	.	.	.	.
12DD/L	(4f#/	12c\L	.	8.cc\]	.	.
12D/	.	12d\	.	.	.	.
12DD/J)	.	12c\J)	.	.	.	.
.	.	.	.	16bn\	Księ-	[[
=79	=79	=79	=79	=79	=79	=79
*	*	*	*	*2\left	*	*
!	!	!	!	!	!	!LO:DY:a
(12GG/L	2g/)	(12Bn\L	[	[2dd\	-ży-	p
12D/	.	12d\	.	.	.	.
12GG/J	.	12G\J	.	.	.	.
12D/L	.	12B\L	.	.	.	.
12GG/	.	12d\	.	.	.	.
12D/J	.	12B\J	.	.	.	.
12GG/L	[4g/	12f\L	.	8dd\L]	.	.
12D/	.	12B\	.	.	.	.
.	.	.	.	8bn\J	.	.
12GG/J	.	12f\J	.	.	.	.
=80	=80	=80	=80	=80	=80	=80
!LO:TX:t=P:problem=mixed beam	!	!	!	!	!	!
12E-\L	4g/]	12d\L	.	4g/	-ca	.
12GG/	.	12c\	.	.	.	.
12E-\J	.	12e-\J	.	.	.	.
!LO:TX:t=P:problem=mixed beam	!	!	!	!	!	!
12GG/L	4f#X/	12c\L	<	4r	.	.
12G\	.	12e-\	.	.	.	.
12GG/J	.	12c\J	.	.	.	.
!LO:TX:t=P:problem=mixed beam	!	!	!	!	!	!
12G\L	(4bn/	12e-\L	.	4r	.	.
12GG/	.	12c\	.	.	.	.
12G\J	.	12e-\J	.	.	.	.
=81	=81	=81	=81	=81	=81	=81
8GG/)	4g/)	12An\L)	[	2.r	.	.
.	.	(>12c\	.	.	.	.
!LO:TX:b:i:t=poco string	!	!	!	!	!	!
8r	.	.	.	.	.	.
.	.	12g\J	.	.	.	.
4r	12bn\L	2ryy	.	.	.	.
.	12dd\	.	.	.	.	.
.	12gg\J	.	.	.	.	.
(12e-\L	4aa-\ 4cc\	.	.	.	.	.
12F#X\	.	.	.	.	.	.
12e-\J	.	.	.	.	.	.
*	*v	*v	*	*	*	*
=82	=82	=82	=82	=82	=82
*^	*	*	*	*	*
*	*xywh-#5:213,1457,5621,1091	*	*	*	*	*
12d\L 12F\)	2ryy	8gg\ 8bn\)	.	2.r	.	.
12d\	.	.	.	.	.	.
.	.	8r	.	.	.	.
12g\J	.	.	.	.	.	.
4r	.	(12b\L	.	.	.	.
.	.	12dd\	.	.	.	.
.	.	12gg\J	.	.	.	.
12e-\L	12ryy	[4aa-\ [4cc\)	.	.	.	.
!	!LO:N:vis=6	!	!	!	!	!
(12G\	12G/	.	.	.	.	.
12e-\J	12e-/	.	.	.	.	.
*v	*v	*	*	*	*	*
!!LO:LB:g=original
=83	=83	=83	=83	=83	=83
*xywh-#5:189,3199,5735,1046	*xywh-#5:189,3199,5735,1046	*	*xywh-#5:278,2542,5653,814	*	*
8a-\ 8e-\ 8E-\)	12aa-\]L 12cc\]	.	2.r	.	.
.	(12cc\	.	.	.	.
8r	.	.	.	.	.
.	12ee-\J	.	.	.	.
4r	12aa-\L	.	.	.	.
.	12ccc\	.	.	.	.
.	12bb-\J	.	.	.	.
4r	12aa-\L	.	.	.	.
.	12ee-\	.	.	.	.
.	12cc\J	.	.	.	.
=84	=84	=84	=84	=84	=84
2.r	12b-/L	>	2.r	.	.
.	12a-/	.	.	.	.
.	12e-/J	.	.	.	.
!	!LO:TX:b:i:t=rit.	!	!	!	!
.	8c/	.	.	.	.
.	4A-/	.	.	.	.
.	8e-/)	]]	.	.	.
=85||	=85||	=85||	=85||	=85||	=85||
*k[b-e-a-d-g-c-]	*k[b-e-a-d-g-c-]	*	*k[b-e-a-d-g-c-]	*	*
!	!	!	!LO:TX:a:i:t=Tempo Io	!	!
4r	8e-/	.	2.r	.	.
.	8r	.	.	.	.
!LO:TX:t=P:problem=doklejona kartka z pięcioliniami	!	!	!	!	!
[2FF/	[2e-/ [2c-/ [2A-^/	sfz	.	.	.
=86	=86	=86	=86	=86	=86
2FF/]	2e-/] 2c-/] 2A-/]	.	4r	.	.
!	!	!	!	!	!LO:DY:a
.	.	.	4.cc-^\	W fal	p
[4FF/	[4e-/ [4c-/ [4A-/	p	.	.	.
.	.	.	8b-\	prze-	.
=87	=87	=87	=87	=87	=87
2FF/]	2e-/] 2c-/] 2A-/]	.	4b-\	-zró-	.
.	.	.	8a-\	-cza,	.
!	!	!	!	!	!LO:DY:a
.	.	.	8e-/L	w sieć	<
[4FF/	[4e-/ [4c-/ [4A-/	.	8a-/J	.	.
.	.	.	8cc-\	pro-	[[
=88	=88	=88	=88	=88	=88
2FF/]	2e-/] 2c-/] 2A-/]	.	8b-\	-mie-	.
.	.	.	8a-/	-ni	.
.	.	.	(>8gn/L	ze-	.
.	.	.	8a-/	.	.
(>4FF-X/	(>4dn/ 4B-/ 4A-/	.	8.b-/J)	.	.
.	.	.	16a-\	-wsząd	.
=89	=89	=89	=89	=89	=89
2EE-/)	2e-/ 2c-/ 2A-/)	<	(4.cc-\	po-	.
!	!	!	!	!	!LO:DY:a
.	.	.	8b-\)	-stać	<
[4FF-X/	[4d-/ [4A-/	[[	8.a-\	twa	.
.	.	.	16dd-\	u-	[[
!!LO:LB:g=original
=90	=90	=90	=90	=90	=90
*	*^	*	*	*	*
*xywh-#5:200,4969,5876,1091	*xywh-#5:200,4969,5876,1091	*xywh-#5:200,4969,5876,1091	*	*xywh-#5:224,4341,5626,800	*	*
4FF-/]	4d-/]	4A-/]	.	4dd-\	-ję-	.
[2D-/ [2DD-/	[2f-X/ [2d-/	4A-\	sfz	4a-/	-ta,	.
.	.	8.F-X\L	<	4r	.	.
.	.	16B--\Jk	.	.	.	.
=91	=91	=91	=91	=91	=91	=91
4D-/] 4DD-/]	4f-/] 4d-/]	4B-X\	[	4r	.	.
!	!	!	!	!	!	!LO:DY:a
[2BB--/ [2BBB--/	[2f-X/ [<2d-/	[2B-\	mf	4.dd-\	Na	mf
.	.	.	.	8b--\	błę-	.
*	*v	*v	*	*	*	*
=92	=92	=92	=92	=92	=92
2BB--/] 2BBB--/]	2f-/] 2d-/] 2B-/]	.	4g-/	-Ki-	.
.	.	.	8f-X/	-tnem,	.
.	.	.	8f-/L	tle	.
4BB--/ 4BBB--/	4f-X/ 4e--/ 4A-/	.	8a-/J	.	.
.	.	.	8cc-\	prze-	.
=93	=93	=93	=93	=93	=93
2BB--/ 2BBB--/	2f-X/ 2d-/ 2B--/	.	4.dd-\	-strze-	.
.	.	.	8cc-\	-ni	.
([4BB--/ [4BBB--/	(4fn/ [4d-/ [4B--/	.	8b--\	Ca-	.
.	.	.	8a-/	-łaś	.
=94	=94	=94	=94	=94	=94
!	!	!	!	!	!LO:DY:a
8BB--/]L 8BBB--/]	2g-/ 2d-/] 2B--X/])	<	8g-/	sreb-	<
8AA-/J 8AAA-/)	.	.	8a-/	-rna	.
4GG-/ 4GGG-/	.	.	8b--\L	w nie-	.
.	.	.	[8dd-\J	.	.
4GG-/ 4GGG-/	4f-X/ 4d-/ 4B--/	[[	8.dd-\]	.	.
.	.	.	16ff-X\	-bo-	[[
=95	=95	=95	=95	=95	=95
!	!	!	!	!	!LO:DY:a
!	!	!	!	!	!LO:DY:a
12FF-X/L 12FFF-X/	[4a-/ [<4f-X/ [4c-X/ [4A-/	fp	[2.ff-X\	-wzię-	f > ]]
*ped	*	*	*	*	*
[[12FF-/	.	.	.	.	.
[12C-/J	.	.	.	.	.
[2F-X/ 2C-/_ [2FF-/]]	12a-/]L 12f-/] 12c-/] 12A-/]	<	.	.	.
.	12A-/	.	.	.	.
.	12c-/J	.	.	.	.
.	12f-/L	.	.	.	.
.	12c-/	.	.	.	.
.	12f-/J	[[	.	.	.
!!LO:LB:g=original
=96	=96	=96	=96	=96	=96
*xywh-#5:211,6536,5695,1283	*xywh-#5:211,6536,5695,1283	*	*xywh-#5:197,6092,5836,699	*	*
8F-\] 8C-\] 8FF-\]	12a-/L	.	4ff-\]	.	.
.	12F-X</	.	.	.	.
8r	.	.	.	.	.
.	12A-</J	.	.	.	.
*	*clefF4	*	*	*	*
4r	(<12c-\L	>	8cc-\	-ta!	.
.	12A-\	.	.	.	.
.	.	.	8r	.	.
.	12c-\J	.	.	.	.
((4EE--/	12cn\L	.	4r	.	.
.	12G-\	.	.	.	.
.	12c\J	]]	.	.	.
=97	=97	=97	=97	=97	=97
*	*^	*	*	*	*
*	*	*xywh-#5:211,6536,5695,1283	*	*	*	*
!	!	!LO:N:vis=3	!	!	!	!
2DD-/)	(2d-/	12d-\L	pp	2.r	.	.
.	.	12F\	.	.	.	.
.	.	12B-\J	.	.	.	.
.	.	12F\L	.	.	.	.
.	.	12A-\	.	.	.	.
.	.	12F\J	.	.	.	.
4CCn/	4e--^/	12G-\L	.	.	.	.
.	.	12B--\	.	.	.	.
.	.	12G-\J	.	.	.	.
=98	=98	=98	=98	=98	=98	=98
4DD-/)	8d-/)	12F\L	.	2.r	.	.
.	.	&(>12G-\	.	.	.	.
.	8ryy	.	.	.	.	.
.	.	12d-\J)	.	.	.	.
*	*clefG2	*	*	*	*	*
4r	12f/L	4ryy	.	.	.	.
.	12a-/	.	.	.	.	.
.	12dd-/J	.	.	.	.	.
(4cn\	(4ee--/	12g-\L	.	.	.	.
.	.	12b--\	.	.	.	.
.	.	12g-\J	.	.	.	.
=99	=99	=99	=99	=99	=99	=99
8d-\)	8dd-/)&)	(<12f\L	.	2.r	.	.
.	.	12a-\	.	.	.	.
8r	2ryy	.	.	.	.	.
.	.	12f\J	.	.	.	.
4r	.	12d-/L	.	.	.	.
.	.	12A-/	.	.	.	.
.	.	12f/J	.	.	.	.
4r	.	12d-/L	.	.	.	.
.	.	12A-</	.	.	.	.
.	8ryy	.	.	.	.	.
.	.	12F</J)	.	.	.	.
*	*v	*v	*	*	*	*
=100	=100	=100	=100	=100	=100
4r	(12D-</L	.	2.r	.	.
.	12F</	.	.	.	.
.	12A-</J	.	.	.	.
!	!LO:TX:t=P:problem=mixed beam	!	!	!	!
4r	12d-\L	.	.	.	.
.	12F</	.	.	.	.
.	12A-</J	.	.	.	.
*	*clefF4	*	*	*	*
(>4DD-/	12An\L	.	.	.	.
.	12d-\	.	.	.	.
.	12D-\J)	.	.	.	.
=101	=101	=101	=101	=101	=101
*	*^	*	*	*	*
*	*	*xywh-#5:211,6536,5695,1283	*	*	*	*
4GG-/ 4GGG-/)	12B-\L	4ryy	.	4r	.	.
.	12d-\	.	.	.	.	.
.	12D-\J	.	.	.	.	.
2GG-/ 2GGG-/	[2d-/	12G-\L	.	4r	.	.
.	.	12B-\	.	.	.	.
.	.	12D-\J	.	.	.	.
!	!	!	!	!LO:TX:a:i:t=molto Tranquillo	!	!
.	.	12G-\L	.	8g-/	Co-	.
.	.	12B-\	.	.	.	.
.	.	.	.	8a-/	-raz	.
.	.	12D-\J	.	.	.	.
!!LO:PB:g=original
=102	=102	=102	=102	=102	=102	=102
*xywh-#6:199,732,2840,556	*xywh-#6:199,732,2840,556	*xywh-#6:199,732,2840,556	*	*xywh-#6:228,461,2721,386	*	*
2GG-/ 2GGG-/	2d-/]	12G-\L	.	4.b-\	da-	.
.	.	12B-\	.	.	.	.
.	.	12D-\J	.	.	.	.
.	.	12G-\L	.	.	.	.
.	.	12B-\	.	.	.	.
.	.	.	.	8g-/	-lej	.
.	.	12D-\J	.	.	.	.
4GG-/ 4GGG-/	(4e-/	12G-\L	.	8e-/	twarz	.
.	.	12c-\	.	.	.	.
.	.	.	.	8f/	mie-	.
.	.	12E-\J	.	.	.	.
=103	=103	=103	=103	=103	=103	=103
[2.GG-/ [2.GGG-/	2.d-/)	12G-\L	.	4d-/	-sią-	.
.	.	12B-\	.	.	.	.
.	.	12D-\J	.	.	.	.
.	.	12G-\L	.	4g-/	-ca	.
.	.	(>12B-\	.	.	.	.
.	.	12D-\J	.	.	.	.
.	.	12G-\L	.	8g-/	Nas	.
.	.	12B-\	.	.	.	.
.	.	.	.	8a-/	pro-	.
.	.	12D-\J	.	.	.	.
=104	=104	=104	=104	=104	=104	=104
!	!	!	!	!	!	!LO:DY:a
4GG-/] 4GGG-/]	8d-/	12G-\L)	<	8b-\	-wa-	<
.	.	12B-\	.	.	.	.
.	8ryy	.	.	8cc-\	-dzi	.
.	.	12D-\J	.	.	.	.
4FF-X/ 4FFF-X/	4A-/	12A-\L	.	(4dd-\	smu-	.
.	.	12d-\	[ >	.	.	.
.	.	12D-\J	.	.	.	.
[4EE-/ [4EEE-/	4Gn/	12Gn\L	.	8.cc-\)	.	[
.	.	12d-\	.	.	.	.
.	.	12E-\J	.	.	.	.
!	!	!	!	!	!	!LO:DY:a
.	.	.	.	16b-\	-giem	>
=105	=105	=105	=105	=105	=105	=105
4GG-/ 4EE-/] 4EEE-/]	8A-/	12A-\L	.	4cc-\	fal,	.
.	.	12c-\	.	.	.	.
.	2ryy	.	]	.	.	.
.	.	12E-\J	.	.	.	.
[2AA-/ [2AAA-/	.	12A-\L	<	4r	.	]
.	.	12c-\	.	.	.	.
.	.	12E-\J	.	.	.	.
.	.	12A-\L	.	8a-/	Płyń-	.
.	.	12c-\	.	.	.	.
.	8ryy	.	.	8b-\	-my,	.
.	.	12E-\J	.	.	.	.
=106	=106	=106	=106	=106	=106	=106
2AA-/] 2AAA-/]	12A-\L	4ryy	.	4.cc-\	płyń-	.
.	12c-\	.	.	.	.	.
.	12E-\J	.	.	.	.	.
*	*clefG2	*	*	*	*	*
!	!LO:TX:t=P:problem=mixed beam	!	!	!	!	!
.	(4e-/	12A-\L	[	.	.	.
.	.	12c-\	.	.	.	.
!	!	!	!	!	!	!LO:DY:a
.	.	.	.	8a-/	-my	<
.	.	12E-</J	.	.	.	.
!	!LO:TX:t=P:problem=mixed beam	!	!	!	!	!
4AA-/ 4AAA-/	4f-X/	12A-\L	.	8f-X/	tak	.
.	.	12c-\	.	.	.	.
.	.	.	.	8a-/	bez	.
.	.	12F-X</J	.	.	.	.
=107	=107	=107	=107	=107	=107	=107
2EE-/ 2EEE-/	2g-/)	12B-\L	.	4g-/	Koń-	.
.	.	12e-\	.	.	.	.
.	.	12G-\J	.	.	.	.
.	.	12B-\L	.	4g-/	-ca	.
.	.	12e-\	.	.	.	.
.	.	12G-\J	.	.	.	.
(4EE-/ (4EEE-/	(4g-/	12B-\L	.	8g-/	W ci-	[
.	.	12e-\	.	.	.	.
.	.	.	.	8b-\	-szę	.
.	.	12G-\J	.	.	.	.
!!LO:LB:g=original
=108	=108	=108	=108	=108	=108	=108
*xywh-#6:157,1537,2863,612	*xywh-#6:157,1537,2863,612	*xywh-#6:157,1537,2863,612	*	*xywh-#6:235,1329,2704,342	*	*
!	!	!	!	!	!	!LO:DY:a
2C-/ 2CC-/))	2a-/	12e-\L	>	4.a-/	w jas-	>
.	.	12g-\	.	.	.	.
.	.	12A-\J	.	.	.	.
.	.	12e-\L	.	.	.	.
.	.	12g-\	.	.	.	.
.	.	.	.	8g-/	-ność	.
.	.	12A-\J	.	.	.	.
(4C-/ (4CC-/	4b-/	12e-\L	.	8.e-/	w błę-	.
.	.	12g-\	.	.	.	.
.	.	12B-\J	.	.	.	.
.	.	.	]	16b-\	-Kit	]]
*	*v	*v	*	*	*	*
=109	=109	=109	=109	=109	=109
*ped	*	*	*	*	*
8D-/ 8DD-/))	12a-/L 12f/ 12A-/)	.	[>4a-/	w dal!	.
.	(12F</	.	.	.	.
8r	.	.	.	.	.
.	12A-</J	.	.	.	.
4r	12d-/L	<	8a-/]	.	.
.	12f/	.	.	.	.
.	.	.	8r	.	.
.	12a-/J	.	.	.	.
4r	12dd-\L	.	4r	.	.
.	12ff\	.	.	.	.
.	12aa-\J	[[	.	.	.
*clefG2	*	*	*	*	*
=110	=110	=110	=110	=110	=110
*	*^	*	*	*	*
*	*	*xywh-#6:157,1537,2863,612	*	*	*	*
4r	2ddd-/)	12ddd-\L	>	2.r	.	.
.	.	12ff\	.	.	.	.
.	.	12aa-\J	.	.	.	.
(12cc-/L	.	12ff\L	.	.	.	.
12d-/	.	12aa-\	.	.	.	.
12cc-/J	.	12ff\J	.	.	.	.
12d-/L	(4ddd-/	12aa-\L	.	.	.	.
12cc-/	.	12ff\	.	.	.	.
*Xped	*	*	*	*	*	*
12d-/J	.	12aa-\J	.	.	.	.
=111	=111	=111	=111	=111	=111	=111
*ped	*	*	*	*	*	*
!	!	!	!	!LO:TX:a:i:t=molto tranquillo	!	!
12b-/L	2ggg-/	12ddd-\L	] pp	2.r	.	.
12d-/	.	12gg-\	.	.	.	.
12b-/J	.	12ddd-\J	.	.	.	.
12d-/L	.	12gg-\L	.	.	.	.
12b-/	.	12ddd-\	.	.	.	.
12d-/J	.	12gg-\J	.	.	.	.
12b-/L	4fff/)	12bb-\L	.	.	.	.
12d-/)	.	12ff\	.	.	.	.
12b-/J	.	12bb-\J	.	.	.	.
=112	=112	=112	=112	=112	=112	=112
12cc-/L	(4eee-/	12aa-\L	<	2.r	.	.
(<12d-/	.	12ee-\	.	.	.	.
12b-/J	.	12gg-\J	.	.	.	.
12a-/L	4ddd-/	12ff\L	.	.	.	.
12d-/	.	12dd-\	.	.	.	.
12a-/J	.	12aa-\J	.	.	.	.
12d-/L	4ccc-/	12ff\L	.	.	.	.
12a-/	.	12cc-\	.	.	.	.
12d-/J	.	12ff\J	.	.	.	.
=113	=113	=113	=113	=113	=113	=113
12g-/L	2bb-/)	12dd-\L	.	4r	.	.
12d-/	.	12b-\	.	.	.	.
12g-/J	.	12dd-\J	.	.	.	.
!	!	!	!	!LO:TX:a:i:t=dolce	!	!
12c-/L	.	12ff\L	.	4.b-\	Płyń-	.
12d-/	.	12dd-\	.	.	.	.
12c-/J	.	12ff\J	.	.	.	.
12d-/L	(6bb-/	12b-\L	.	.	.	.
12c-/	.	12dd-\	.	.	.	.
.	.	.	.	8a-\	-my,	.
12d-/J	12aa-/	12b-\J	[	.	.	.
*clefF4	*	*	*	*	*	*
!!LO:LB:g=original
=114	=114	=114	=114	=114	=114	=114
*xywh-#6:182,2440,2787,530	*xywh-#6:182,2440,2787,530	*xywh-#6:182,2440,2787,530	*	*xywh-#6:211,2173,2734,376	*	*
!LO:TX:t=P:problem=łuk u góry	!	!	!	!	!	!LO:DY:a
12B-\L	2gg-/	12dd-\L	.	4.g-/	płyń-	<
12d-\	.	12b-\	.	.	.	.
12B-\J	.	12dd-\J	.	.	.	.
12G-\L	.	12a-\L	.	.	.	.
12d-\	.	12dd-\	.	.	.	.
.	.	.	.	8b-\	-my	.
12G-\J	.	12g-\J	.	.	.	.
12d-\L	4ff/	12b-\L	.	8.dd-\	tak	.
12G-\	.	12f\	.	.	.	.
12d-\J)	.	12b-\J	.	.	.	.
.	.	.	.	16ee-\	bez	[[
=115	=115	=115	=115	=115	=115	=115
(<12G-\L	[2.ee-/)	12e-\L	.	4ee-\	Koń-	.
12c-\	.	12g-\	.	.	.	.
12G-\J	.	12e-\J	.	.	.	.
12c-\L	.	12a-\L	.	4a-/	-ca	.
12G-\	.	12e-\	.	.	.	.
12c-\J	.	12a-\J	.	.	.	.
12G-\L	.	12e-\L	.	4r	.	.
12c-\	.	12a-\	.	.	.	.
12G-\J	.	12e-\J	.	.	.	.
=116	=116	=116	=116	=116	=116	=116
12c-\L	2.ee-/_	12a-\L	>	4r	.	.
12G-\	.	12e-\	.	.	.	.
12c-\J	.	12a-\J	.	.	.	.
!	!	!	!	!	!	!LO:DY:a:rj
12G-\L	.	12e-\L	.	4.cc-\	W ci-	p
12c-\	.	12a-\	.	.	.	.
12G-\J	.	12e-\J	.	.	.	.
12c-\L	.	12a-\L	.	.	.	.
12G-\	.	12e-\	.	.	.	.
.	.	.	.	8b-\	-szę	.
12c-\J	.	12a-\J	.	.	.	.
=117	=117	=117	=117	=117	=117	=117
*2\right	*	*	*	*	*	*
2G-\)	4ee-/]	12e-\L	]	4a-/	w jas-	.
.	.	12g-\	.	.	.	.
.	.	12e-\J	.	.	.	.
.	(4cc-/	12e-\L	.	4e-/	-ność	.
.	.	12g-\	.	.	.	.
.	.	12c-\J	.	.	.	.
(4G-\	4b-/)	12e-\L	<	4r	.	.
.	.	12g-\	.	.	.	.
.	.	12c-\J	.	.	.	.
=118	=118	=118	=118	=118	=118	=118
2GG-/)	(2b-/	12e-\L	.	4r	.	.
.	.	12g-\	.	.	.	.
.	.	12c-\J	.	.	.	.
.	.	12d-\L	[	8r	.	.
.	.	12g-\	.	.	.	.
!	!	!	!	!	!	!LO:DY:a
.	.	.	.	8e-/L	W błę-	<
.	.	12c-\J	>	.	.	.
([>4GG-/	4a-/	12d-\L	.	8.f;/J	.	.
.	.	12f\	.	.	.	.
.	.	12c-\J	.	.	.	.
.	.	.	.	16a-/	-kit	[[
=119	=119	=119	=119	=119	=119	=119
!	!	!	!	!	!	!LO:DY:a
2GG-/] 2GGG-/)	2g-/)	12B-\L	] pp	[>2.g-/	w dal!	>]
.	.	12d-\	.	.	.	.
.	.	12G-\J	.	.	.	.
.	.	12B-\L	.	.	.	.
.	.	12d-\	.	.	.	.
.	.	12G-\J	.	.	.	.
[>4GG-/	[4f/	12B-\L	.	.	.	.
.	.	12d-\	.	.	.	.
.	.	12F\J	.	.	.	.
!!LO:LB:g=original
=120	=120	=120	=120	=120	=120	=120
*xywh-#6:185,3248,1925,649	*xywh-#6:185,3248,1925,649	*xywh-#6:185,3248,1925,649	*	*xywh-#6:194,3061,1945,379	*	*
2GG-/] 2GGG-/	4f/]	12B-\L	.	4g-/]	.	.
.	.	12d-\	.	.	.	.
.	.	12G-\J	.	.	.	.
!	!	!LO:TX:t=P:problem=mixed beam	!LO:HP:a:i:t=diminuendo	!	!	!
.	[2e-/	12B-\L	>	4r	.	.
.	.	12d-\	.	.	.	.
.	.	12E-</J	.	.	.	.
!	!LO:TX:t=P:problem=mixed beam	!	!	!	!	!
([>4GG-/	.	12B-\L	.	4r	.	.
.	.	12d-\	.	.	.	.
.	.	12E-</J	.	.	.	.
=121	=121	=121	=121	=121	=121	=121
!	!LO:TX:t=P:problem=mixed beam	!	!	!	!	!
2GG-/] 2GGG-/)	2e-/]	12B-\L	.	2.r	.	.
.	.	12d-\	.	.	.	.
.	.	12E-</J	.	.	.	.
!	!LO:TX:t=P:problem=mixed beam	!	!	!	!	!
.	.	12A-\L	.	.	.	.
.	.	12c-\	.	.	.	.
.	.	12E-</J	.	.	.	.
!	!LO:TX:t=P:problem=mixed beam	!	!	!	!	!
([>4GG-/	4d-/	12A-\L	.	.	.	.
.	.	12c-\	.	.	.	.
.	.	12D-</J	.	.	.	.
=122	=122	=122	=122	=122	=122	=122
2GG-/] 2GGG-/)	[4d-/	(<12G-\L	]	2.r	.	.
.	.	12B-\	.	.	.	.
.	.	12D-</J	.	.	.	.
.	8d-/] 8G-/)	2ryy	.	.	.	.
.	8r	.	.	.	.	.
*	*clefF4	*	*	*	*	*
4GG-/ 4GGG-/	4d-\ 4B-\ 4G-\ 4D-\	.	ppp	.	.	.
*	*v	*v	*	*	*	*
=123	=123	=123	=123	=123	=123
2.GG-/ 2.GGG-/	2.d-\ 2.B-\ 2.G-\ 2.D-\	.	2.r	.	.
==	==	==	==	==	==
*-	*-	*-	*-	*-	*-
!!!system-decoration: s1[(s2,s3)]
!!!RDF**kern: > = above
!!!RDF**kern: < = below
!!!ENC: Filip Voros
!!!END: 2022-02-17
!!!ENC: Leszek Kubiak
!!!END: 2022-02-18
!!!ENC-iiif: Antoni Szymański
!!!END-iiif: 2022-09-04
